assets/solar-icon.svg

<svg height="41" viewBox="0 0 40 41" width="40" xmlns="http://www.w3.org/2000/svg"><path d="m44.9907621 32.0946882c.8868361 0 1.6258661-.73903 1.6258661-1.6073903v-3.8799076c0-.8683603-.73903-1.6073903-1.6258661-1.6073903-.8683603 0-1.6073903.73903-1.6073903 1.6073903v3.8799076c0 .8683603.73903 1.6073903 1.6073903 1.6073903zm11.4180139 3.8244804 2.7528868-2.7528868c.6281755-.6281756.6281755-1.6628176 0-2.2909931-.6096998-.6096998-1.6443418-.6096998-2.2540416 0l-2.7898383 2.7713626c-.6096998.6281755-.6096998 1.6628175 0 2.2725173.6281755.6281755 1.6628176.6466513 2.2909931 0zm-20.5635104 0c.6281755-.591224.6281755-1.6628176.0184757-2.2725173l-2.7528868-2.7713626c-.591224-.591224-1.6443418-.6096998-2.2725173 0-.6096998.6096998-.6096998 1.6628175-.0184758 2.2725173l2.7528869 2.7713626c.6281755.6281755 1.6628175.6281755 2.2725173 0zm9.1454965 18.5681293c5.1362587 0 9.4041571-4.2863741 9.4041571-9.4411085s-4.2678984-9.4226328-9.4041571-9.4226328c-5.1547344 0-9.4226328 4.2678984-9.4226328 9.4226328s4.2678984 9.4411085 9.4226328 9.4411085zm18.3833718-7.8337182c.8868361 0 1.6258661-.73903 1.6258661-1.6073903s-.73903-1.6073903-1.6258661-1.6073903h-3.8614318c-.8683603 0-1.6073903.73903-1.6073903 1.6073903s.73903 1.6073903 1.6073903 1.6073903zm-32.9053117 0c.886836 0 1.625866-.73903 1.625866-1.6073903s-.73903-1.6073903-1.625866-1.6073903h-3.8614319c-.8683603 0-1.6073903.73903-1.6073903 1.6073903s.73903 1.6073903 1.6073903 1.6073903zm28.6928406 12.5635104c.6281755-.6096998.6281755-1.6443418 0-2.2725174l-2.7713626-2.7528868c-.6096997-.6096998-1.6443418-.6096998-2.2725173 0-.6096998.6096998-.6096998 1.6443418 0 2.2725173l2.7898383 2.7713626c.6096998.6096998 1.6443418.591224 2.2540416-.0184757zm-26.069284 0 2.7528868-2.7528869c.6281755-.6096997.6281755-1.6443418.0184757-2.2725173-.6096997-.6096998-1.6628175-.6096998-2.290993 0l-2.7528869 2.7344111c-.6096997.6096998-.6096997 1.6628175-.0184757 2.2725173.6096998.6096998 1.6628175.6281755 2.2909931.0184758zm11.8983833 5.8752887c.8868361 0 1.6258661-.7390301 1.6258661-1.6073903v-3.8799077c0-.8683602-.73903-1.6073903-1.6258661-1.6073903-.8683603 0-1.6073903.7390301-1.6073903 1.6073903v3.8799077c0 .8683602.73903 1.6073903 1.6073903 1.6073903z" fill="#fff" opacity=".5" transform="translate(-25 -25)"/></svg>

<?xml version="1.0" encoding="UTF-8"?>
<svg width="40px" height="41px" viewBox="0 0 40 41" version="1.1" xmlns="http://www.w3.org/2000/svg" xmlns:xlink="http://www.w3.org/1999/xlink">
    <title>􀆮</title>
    <g id="Web" stroke="none" stroke-width="1" fill="none" fill-rule="evenodd" opacity="0.5">
        <g id="Artboard" transform="translate(-1001.000000, -856.000000)" fill="#FFFFFF" fill-rule="nonzero">
            <g id="Group-3" transform="translate(976.000000, 831.000000)">
                <path d="M44.9907621,32.0946882 C45.8775982,32.0946882 46.6166282,31.3556582 46.6166282,30.4872979 L46.6166282,26.6073903 C46.6166282,25.73903 45.8775982,25 44.9907621,25 C44.1224018,25 43.3833718,25.73903 43.3833718,26.6073903 L43.3833718,30.4872979 C43.3833718,31.3556582 44.1224018,32.0946882 44.9907621,32.0946882 Z M56.408776,35.9191686 L59.1616628,33.1662818 C59.7898383,32.5381062 59.7898383,31.5034642 59.1616628,30.8752887 C58.551963,30.2655889 57.517321,30.2655889 56.9076212,30.8752887 L54.1177829,33.6466513 C53.5080831,34.2748268 53.5080831,35.3094688 54.1177829,35.9191686 C54.7459584,36.5473441 55.7806005,36.5658199 56.408776,35.9191686 Z M35.8452656,35.9191686 C36.4734411,35.3279446 36.4734411,34.256351 35.8637413,33.6466513 L33.1108545,30.8752887 C32.5196305,30.2840647 31.4665127,30.2655889 30.8383372,30.8752887 C30.2286374,31.4849885 30.2286374,32.5381062 30.8198614,33.147806 L33.5727483,35.9191686 C34.2009238,36.5473441 35.2355658,36.5473441 35.8452656,35.9191686 Z M44.9907621,54.4872979 C50.1270208,54.4872979 54.3949192,50.2009238 54.3949192,45.0461894 C54.3949192,39.891455 50.1270208,35.6235566 44.9907621,35.6235566 C39.8360277,35.6235566 35.5681293,39.891455 35.5681293,45.0461894 C35.5681293,50.2009238 39.8360277,54.4872979 44.9907621,54.4872979 Z M63.3741339,46.6535797 C64.26097,46.6535797 65,45.9145497 65,45.0461894 C65,44.1778291 64.26097,43.4387991 63.3741339,43.4387991 L59.5127021,43.4387991 C58.6443418,43.4387991 57.9053118,44.1778291 57.9053118,45.0461894 C57.9053118,45.9145497 58.6443418,46.6535797 59.5127021,46.6535797 L63.3741339,46.6535797 Z M30.4688222,46.6535797 C31.3556582,46.6535797 32.0946882,45.9145497 32.0946882,45.0461894 C32.0946882,44.1778291 31.3556582,43.4387991 30.4688222,43.4387991 L26.6073903,43.4387991 C25.73903,43.4387991 25,44.1778291 25,45.0461894 C25,45.9145497 25.73903,46.6535797 26.6073903,46.6535797 L30.4688222,46.6535797 Z M59.1616628,59.2170901 C59.7898383,58.6073903 59.7898383,57.5727483 59.1616628,56.9445727 L56.3903002,54.1916859 C55.7806005,53.5819861 54.7459584,53.5819861 54.1177829,54.1916859 C53.5080831,54.8013857 53.5080831,55.8360277 54.1177829,56.4642032 L56.9076212,59.2355658 C57.517321,59.8452656 58.551963,59.8267898 59.1616628,59.2170901 Z M33.0923788,59.2170901 L35.8452656,56.4642032 C36.4734411,55.8545035 36.4734411,54.8198614 35.8637413,54.1916859 C35.2540416,53.5819861 34.2009238,53.5819861 33.5727483,54.1916859 L30.8198614,56.926097 C30.2101617,57.5357968 30.2101617,58.5889145 30.8013857,59.1986143 C31.4110855,59.8083141 32.4642032,59.8267898 33.0923788,59.2170901 Z M44.9907621,65.0923788 C45.8775982,65.0923788 46.6166282,64.3533487 46.6166282,63.4849885 L46.6166282,59.6050808 C46.6166282,58.7367206 45.8775982,57.9976905 44.9907621,57.9976905 C44.1224018,57.9976905 43.3833718,58.7367206 43.3833718,59.6050808 L43.3833718,63.4849885 C43.3833718,64.3533487 44.1224018,65.0923788 44.9907621,65.0923788 Z" id="􀆮"></path>
            </g>
        </g>
    </g>
</svg>
